X: 208
T:Lauda Jerusalem dominum
N: Derived from Jos1709-Lauda_Jerusalem_dominum.krn
C: Josquin des Prez
%%abc-version 2.0
%%abcx-abcm2ps-target-version 5.9.1 (29 Sep 2008)
%%abc-creator hum2abc beta
%%abcx-conversion-date 2019/02/12 16:15:48
%%abc-edited-by Jesse Rodin
%%abc-edited-by Jesse Rodin 8/18/2013
%%abcx-initial-encoding-date 2013/08/18/
%%humdrum-veritas 484927971
%%humdrum-veritas-data 3166945932
%%linebreak <none>
%%barnumbers 0
L: 1/4
M: 2/1
Q: 1/2=120
%%staves [1 2 3 4]
V: 1 clef=treble
V: 2 clef=treble-8
V: 3 clef=treble-8
V: 4 clef=bass
K: C
[V:1] A8 | 
[V:2] d8 | 
[V:3] A8 | 
[V:4] D,8 | 
[V:1] A4A4 | 
[V:2] e4e4 | 
[V:3] c8 | 
[V:4] A,4A,4 | 
[V:1] c4c4 | 
[V:2] e4e4 | 
[V:3] c8 | 
[V:4] A,4A,4 | 
[V:1] B4d4- | 
[V:2] g6fe | 
[V:3] d4d4 | 
[V:4] G,8- | 
[V:1] d2G2G3A | 
[V:2] d8 | 
[V:3] B8 | 
[V:4] G,8- | 
[V:1] B8 | 
[V:2] g6e2 | 
[V:3] z4e4- | 
[V:4] G,8 | 
[V:1] z4A4- | 
[V:2] e6d2 | 
[V:3] e2A2A4- | 
[V:4] A,6D,2 | 
[V:1] A2D2D4 | 
[V:2] f8- | 
[V:3] A4z4 | 
[V:4] D,8- | 
[V:1] z4d4- | 
[V:2] f8 | 
[V:3] d6c2 | 
[V:4] D,8 | 
[V:1] d2c2B2A2 | 
[V:2] z8 | 
[V:3] B2A2G2F2 | 
[V:4] z8 | 
[V:1] G2F2E4 | 
[V:2] z8 | 
[V:3] E2D2A4 | 
[V:4] z8 | 
[V:1] D8 | 
[V:2] z4g4- | 
[V:3] B8 | 
[V:4] G,6F,2 | 
[V:1] z8 | 
[V:2] g2f2e2d2 | 
[V:3] G8 | 
[V:4] E,2D,2C,2B,,2 | 
[V:1] z2d2d3c | 
[V:2] c2B2A4 | 
[V:3] z8 | 
[V:4] A,,2G,,2D,4 | 
[V:1] B2A2G2F2 | 
[V:2] G8 | 
[V:3] B6G2 | 
[V:4] E,8 | 
[V:1] E4D4 | 
[V:2] c4d3c | 
[V:3] G4B3c | 
[V:4] C,4G,4- | 
[V:1] G6F2 | 
[V:2] B2A2G2A2- | 
[V:3] d2D2E2F2 | 
[V:4] G,2F,2E,2D,2 | 
[V:1] E2D4^C2 | 
[V:2] AGG2A4 | 
[V:3] G2D2E4 | 
[V:4] C,2B,,2A,,4 | 
[V:1] D8 | 
[V:2] B8 | 
[V:3] G8- | 
[V:4] G,,8 | 
[V:1] z4G4- | 
[V:2] z8 | 
[V:3] G8 | 
[V:4] C,8 | 
[V:1] G2G2G4 | 
[V:2] c6c2 | 
[V:3] z8 | 
[V:4] z8 | 
[V:1] G4A2B2 | 
[V:2] c2c4d2 | 
[V:3] z4z2G2- | 
[V:4] z8 | 
[V:1] G8 | 
[V:2] e4c4- | 
[V:3] G2G2G4 | 
[V:4] C,6C,2 | 
[V:1] z8 | 
[V:2] c4z4 | 
[V:3] G6A2 | 
[V:4] C,4C,4 | 
[V:1] z4z2G2 | 
[V:2] z4z2e2 | 
[V:3] B2G2c4 | 
[V:4] D,2E,2C,4 | 
[V:1] A2B2c3B | 
[V:2] f2d2e3d | 
[V:3] z4e4 | 
[V:4] z8 | 
[V:1] A2G2A2A2 | 
[V:2] c2B2A2f2 | 
[V:3] e2e2c2d2 | 
[V:4] z2E,2F,2D,2 | 
[V:1] G2A2B2c2- | 
[V:2] e4d2c2 | 
[V:3] B2c2B2e2- | 
[V:4] E,3F,G,2A,2 | 
[V:1] cBA4G2 | 
[V:2] A4z2e2 | 
[V:3] edd3cc2- | 
[V:4] F,6E,2 | 
[V:1] A2F2E4- | 
[V:2] fedcBcAc | 
[V:3] cBB3AA2- | 
[V:4] D,4E,4- | 
[V:1] E4z4 | 
[V:2] B4A4 | 
[V:3] A^G^G2A4 | 
[V:4] E,4A,,4- | 
[V:1] z4z2E2 | 
[V:2] z2A2B2c2 | 
[V:3] E4z4 | 
[V:4] A,,4z4 | 
[V:1] F2G2A4- | 
[V:2] d2e2A3B | 
[V:3] z2E2F2G2 | 
[V:4] z8 | 
[V:1] A2G2F3E | 
[V:2] c2d2c4 | 
[V:3] A2B2A3G | 
[V:4] z4z4 | 
[V:1] D2^C2D4- | 
[V:2] A4z4 | 
[V:3] F2E2D4 | 
[V:4] z2A,,2B,,2C,2 | 
[V:1] D4z4 | 
[V:2] z2A2B2c2 | 
[V:3] z8 | 
[V:4] D,4z2A,,2 | 
[V:1] z8 | 
[V:2] d6c2 | 
[V:3] z8 | 
[V:4] B,,2C,2D,2E,2 | 
[V:1] z4z4 | 
[V:2] B3AG2^F2 | 
[V:3] z8 | 
[V:4] D,3C,B,,2A,,2 | 
[V:1] B8- | 
[V:2] G8 | 
[V:3] d8 | 
[V:4] G,,8 | 
[V:1] B8 | 
[V:2] z4d4 | 
[V:3] d4d4 | 
[V:4] G,8 | 
[V:1] B4B4 | 
[V:2] d4d4 | 
[V:3] B8 | 
[V:4] G,4G,4 | 
[V:1] A2c4BA | 
[V:2] f8 | 
[V:3] c3B/A/c2d2 | 
[V:4] F,6D,2 | 
[V:1] G4z2G2 | 
[V:2] e3dc2B2 | 
[V:3] B4e4- | 
[V:4] E,8 | 
[V:1] c3BA2G2 | 
[V:2] A4e4 | 
[V:3] e2c4B2 | 
[V:4] A,,2A,3G,E,2 | 
[V:1] A3G/F/E4 | 
[V:2] z4e4 | 
[V:3] A2d2c2A2 | 
[V:4] F,2G,2A,3G,/F,/ | 
[V:1] z2G2c3B | 
[V:2] e4e4 | 
[V:3] B4z2E2 | 
[V:4] E,4z2C,2 | 
[V:1] A2G2A3G/F/ | 
[V:2] A2c4B2 | 
[V:3] D2E2F4 | 
[V:4] F,3E,D,2D,2 | 
[V:1] E8- | 
[V:2] c8 | 
[V:3] G4A4 | 
[V:4] C,3B,,A,,2A,2- | 
[V:1] E8 | 
[V:2] B4c4 | 
[V:3] E4z4 | 
[V:4] A,2G,2A,4 | 
[V:1] z2G2A2B2 | 
[V:2] z2e2f2d2 | 
[V:3] z8 | 
[V:4] E,4z4 | 
[V:1] c2A2B4 | 
[V:2] e2f2g4 | 
[V:3] z4z4 | 
[V:4] z4z4 | 
[V:1] G4z4 | 
[V:2] e4z2d2 | 
[V:3] z2G2A2B2 | 
[V:4] z2E,2F,2D,2 | 
[V:1] c4B3A | 
[V:2] g2f2d4 | 
[V:3] c2A2d4 | 
[V:4] E,2F,2G,4 | 
[V:1] BGc2B2A2- | 
[V:2] e2g4fe | 
[V:3] G3ABGc2 | 
[V:4] E,3F,G,2A,2 | 
[V:1] A2^G2A4- | 
[V:2] e4e4- | 
[V:3] B2B2A4 | 
[V:4] E,4A,,4- | 
[V:1] A4z4 | 
[V:2] e4z2A2 | 
[V:3] z4E4 | 
[V:4] A,,8 | 
[V:1] E4E4 | 
[V:2] c4c4 | 
[V:3] E4E4 | 
[V:4] z2A,,2A,,2A,,2 | 
[V:1] E4G4- | 
[V:2] B8 | 
[V:3] G4z2G2 | 
[V:4] E,4z2E,2 | 
[V:1] G4G4 | 
[V:2] z2B2B2B2 | 
[V:3] G2G2EFGA | 
[V:4] E,2E,2G,4- | 
[V:1] G2FEG2A2 | 
[V:2] d2e4dc | 
[V:3] B2c2c2BA | 
[V:4] G,2C,2C,4 | 
[V:1] B2c4BA | 
[V:2] B2A2A4 | 
[V:3] G2A2E4 | 
[V:4] z2A,,2C,3D, | 
[V:1] G2A2E4- | 
[V:2] c4B4 | 
[V:3] z4E3F | 
[V:4] E,2F,2G,2A,2 | 
[V:1] E4z4 | 
[V:2] E4z4 | 
[V:3] G2A2A2GF | 
[V:4] B,2C4B,A, | 
[V:1] z4z4 | 
[V:2] z4z2c2 | 
[V:3] E2F2C4- | 
[V:4] G,2A,2E,4 | 
[V:1] z2c2c3B/A/ | 
[V:2] c3B/A/G2A2 | 
[V:3] C8 | 
[V:4] z8 | 
[V:1] G2A2E4 | 
[V:2] E4z4 | 
[V:3] z2c2c2c2 | 
[V:4] z2A,2A,2A,2 | 
[V:1] z2A2A2A2 | 
[V:2] z2e2c2d2 | 
[V:3] B2c2A4 | 
[V:4] G,2A,4G,F, | 
[V:1] G2A2A3G/F/ | 
[V:2] e2f2d4 | 
[V:3] z4z2d2 | 
[V:4] E,2D,2F,2G,2 | 
[V:1] E4z2A2 | 
[V:2] z2e4c2- | 
[V:3] c2A3Bc2 | 
[V:4] A,4A,,4 | 
[V:1] A3G/F/E2A2 | 
[V:2] cde4dc | 
[V:3] A2c4BA | 
[V:4] z2A,,2C,2D,2 | 
[V:1] G2E2F4 | 
[V:2] B2e2d4 | 
[V:3] G2c2A2B2- | 
[V:4] E,2C,2D,4 | 
[V:1] E8- | 
[V:2] B2G2c4 | 
[V:3] BGc3BA2- | 
[V:4] E,4C,3D, | 
[V:1] E8 | 
[V:2] B4c4 | 
[V:3] A2^G2A4- | 
[V:4] E,4A,,4- | 
[V:1] z4G4 | 
[V:2] A2c4BA | 
[V:3] A4z4 | 
[V:4] A,,4z4 | 
[V:1] G4G4 | 
[V:2] G8 | 
[V:3] B4c4 | 
[V:4] z4E,4 | 
[V:1] A8 | 
[V:2] z2c2f4 | 
[V:3] A4d4 | 
[V:4] F,4D,4 | 
[V:1] z4z2A2 | 
[V:2] e4A4 | 
[V:3] B2c2c2d2 | 
[V:4] E,4F,4 | 
[V:1] G2A2A2GF | 
[V:2] z2A4B2 | 
[V:3] e2c2d4 | 
[V:4] E,2F,4E,D, | 
[V:1] E8- | 
[V:2] cdefg2e2 | 
[V:3] G2c2B2c2- | 
[V:4] C,2A,2G,2A,2- | 
[V:1] E8 | 
[V:2] A4B4- | 
[V:3] c2BAG4- | 
[V:4] A,2G,F,E,4 | 
[V:1] z4B4- | 
[V:2] B2c2d2B2 | 
[V:3] G2FEF2G2- | 
[V:4] z2E,2D,2E,2- | 
[V:1] B2B2B4 | 
[V:2] e4d2d2- | 
[V:3] GEA4G2 | 
[V:4] E,2D,C,B,,4 | 
[V:1] z2c2B2c2- | 
[V:2] d2c2d2A2 | 
[V:3] A4z4 | 
[V:4] A,,2A,2G,2A,2- | 
[V:1] c2BAG4 | 
[V:2] c2d2e4 | 
[V:3] A4B3c | 
[V:4] A,2G,F,E,4 | 
[V:1] z2A2G2A2 | 
[V:2] f4e2c2 | 
[V:3] d2D2E2F2 | 
[V:4] D,4z4 | 
[V:1] A2GFE4 | 
[V:2] d4B2c2- | 
[V:3] D4z4 | 
[V:4] z2A,2G,2A,2- | 
[V:1] z2A2G2A2- | 
[V:2] c2d2e2c2 | 
[V:3] A4B2A2 | 
[V:4] A,2G,F,E,2F,2 | 
[V:1] A2GFE4- | 
[V:2] f4z4 | 
[V:3] d4z2c2 | 
[V:4] D,4z2A,2 | 
[V:1] E8- | 
[V:2] z8 | 
[V:3] B2c4BA | 
[V:4] G,2A,4G,F, | 
[V:1] E8- | 
[V:2] z2c2B2c2 | 
[V:3] G4z4 | 
[V:4] E,6A,,2 | 
[V:1] E8- | 
[V:2] c2BAG2A2 | 
[V:3] z8 | 
[V:4] A,,3B,,C,2A,,2 | 
[V:1] E8- | 
[V:2] E2A2G4 | 
[V:3] z2c2B2c2- | 
[V:4] C,3D,E,4- | 
[V:1] E8 ||  
[V:2] c4B4 ||  
[V:3] c2BAG4 ||  
[V:4] E,8 ||  
[V:1]  [K:C] [K:clef=treble][M:2/1]A8 | 
[V:2]  [K:C] [K:clef=treble-8][M:2/1]z8 | 
[V:3]  [K:C] [K:clef=treble-8][M:2/1]z8 | 
[V:4]  [K:C] [K:clef=bass][M:2/1]z8 | 
[V:1] G4A4 | 
[V:2] z8 | 
[V:3] z4A4- | 
[V:4] z8 | 
[V:1] c4B4 | 
[V:2] z8 | 
[V:3] A4G4 | 
[V:4] z8 | 
[V:1] A6G2 | 
[V:2] e8 | 
[V:3] A4c4 | 
[V:4] z8 | 
[V:1] G4A3B/c/ | 
[V:2] d8- | 
[V:3] B4A4- | 
[V:4] z4D,4- | 
[V:1] d4G4 | 
[V:2] d4e4 | 
[V:3] A2B2c2d2 | 
[V:4] D,4C,4- | 
[V:1] z2E2A4- | 
[V:2] g4f4- | 
[V:3] e4d4- | 
[V:4] C,4D,4 | 
[V:1] A2GFA4 | 
[V:2] f2edc2d2 | 
[V:3] d4z2A2 | 
[V:4] F,8 | 
[V:1] G4F4 | 
[V:2] e4A4- | 
[V:3] B2c2d4- | 
[V:4] E,4D,4- | 
[V:1] D4E4- | 
[V:2] A8- | 
[V:3] d4c4- | 
[V:4] D,2C,B,,A,,4- | 
[V:1] E8- | 
[V:2] A4z4 | 
[V:3] c4z2G2 | 
[V:4] A,,4z2E,2 | 
[V:1] E4z4 | 
[V:2] z4z4 | 
[V:3] G2G2A4 | 
[V:4] E,2C,2F,4 | 
[V:1] z2G2G2G2 | 
[V:2] z2e2e2c2 | 
[V:3] G8 | 
[V:4] E,8 | 
[V:1] A4G4- | 
[V:2] f4e4- | 
[V:3] z4z2G2- | 
[V:4] z4z2E,2- | 
[V:1] G4z4 | 
[V:2] e4z4 | 
[V:3] G2G2E2F2 | 
[V:4] E,2E,2E,2D,2 | 
[V:1] z8 | 
[V:2] z8 | 
[V:3] G2A2B2c2 | 
[V:4] E,2F,2G,2E,2 | 
[V:1] z4z2G2- | 
[V:2] z4z2e2- | 
[V:3] A4G4- | 
[V:4] F,4E,4- | 
[V:1] G2G2E2F2 | 
[V:2] e2e2e2d2 | 
[V:3] G4z4 | 
[V:4] E,4z4 | 
[V:1] G2A2B2c2 | 
[V:2] e2f2g2e2 | 
[V:3] z8 | 
[V:4] z8 | 
[V:1] A4G3A | 
[V:2] f4e2d2 | 
[V:3] d4B3c | 
[V:4] D,4E,2G,2- | 
[V:1] B2c2B2A2- | 
[V:2] g6fe | 
[V:3] d2e2d4- | 
[V:4] G,2F,E,G,2A,2 | 
[V:1] A2G2F2E2- | 
[V:2] d4c2B2- | 
[V:3] d2G2A2B2 | 
[V:4] B,4A,2G,2- | 
[V:1] EDD2E4- | 
[V:2] B2A2B4 | 
[V:3] E2A4^G2 | 
[V:4] G,2F,2E,4 | 
[V:1] E4z4 | 
[V:2] c8 | 
[V:3] A8 | 
[V:4] A,,8 | 
[V:1] [M:3/1]E8E4 | 
[V:2] [M:3/1]c4c4c4 | 
[V:3] [M:3/1]A4A4A4 | 
[V:4] [M:3/1]A,4A,4A,4 | 
[V:1] G8G4 | 
[V:2] e8d4 | 
[V:3] B4c4B4 | 
[V:4] E,6F,2G,4 | 
[V:1] E4F8 | 
[V:2] c8B4 | 
[V:3] G8F4 | 
[V:4] C,4D,8 | 
[V:1] E8z4 | 
[V:2] c8z4 | 
[V:3] G8z4 | 
[V:4] C,8z4 | 
[V:1] E4E4E4 | 
[V:2] c4c4c4 | 
[V:3] c4A4A4 | 
[V:4] A,4A,4A,4 | 
[V:1] G8G4 | 
[V:2] e6e2d4 | 
[V:3] B4c4B4 | 
[V:4] E,6F,2G,4 | 
[V:1] E4F8 | 
[V:2] c8B4 | 
[V:3] G8F4 | 
[V:4] C,4D,8 | 
[V:1] E8z4 | 
[V:2] c8z4 | 
[V:3] G8z4 | 
[V:4] C,8z4 | 
[V:1] c8c4 | 
[V:2] g8g4 | 
[V:3] e8e4 | 
[V:4] C,8C,4 | 
[V:1] c8B4 | 
[V:2] g8g4 | 
[V:3] e4e4d4 | 
[V:4] C,8G,4 | 
[V:1] c4d8 | 
[V:2] f4d8 | 
[V:3] c4G8 | 
[V:4] A,4B,8 | 
[V:1] G8d4- | 
[V:2] e8d4 | 
[V:3] z4B8 | 
[V:4] C4G,8 | 
[V:1] d4c4B4- | 
[V:2] f8d4 | 
[V:3] A8d4- | 
[V:4] F,8G,4- | 
[V:1] B2A2c6B2 | 
[V:2] g4e4c4 | 
[V:3] d4c8 | 
[V:4] G,4A,8 | 
[V:1] A8^G4 | 
[V:2] f4e8 | 
[V:3] d4B8 | 
[V:4] D,4E,8 | 
[V:1] [M:2/1]A8- | 
[V:2] [M:2/1]c8- | 
[V:3] [M:2/1]A8 | 
[V:4] [M:2/1]A,,8 | 
[V:1] A8 | 
[V:2] c8 | 
[V:3] z8 | 
[V:4] z4F,4- | 
[V:1] z8 | 
[V:2] z8 | 
[V:3] c6c2 | 
[V:4] F,2F,2F,2F,2 | 
[V:1] z8 | 
[V:2] z8 | 
[V:3] c2c2B4 | 
[V:4] E,4G,4 | 
[V:1] z8 | 
[V:2] z8 | 
[V:3] d4c2A2 | 
[V:4] F,2D,2E,2F,2 | 
[V:1] z8 | 
[V:2] z8 | 
[V:3] B2c3BAG | 
[V:4] D,2C,2F,3E, | 
[V:1] z8 | 
[V:2] z4f4- | 
[V:3] A4D4 | 
[V:4] D,4F,4- | 
[V:1] c6c2 | 
[V:2] f2f2f2f2 | 
[V:3] z8 | 
[V:4] F,4z4 | 
[V:1] c2c2B4 | 
[V:2] e4g4 | 
[V:3] z8 | 
[V:4] z8 | 
[V:1] d4c2A2 | 
[V:2] f2d2e2f2 | 
[V:3] z8 | 
[V:4] z8 | 
[V:1] B2c3BAG | 
[V:2] d2c2f3e | 
[V:3] z8 | 
[V:4] z8 | 
[V:1] A2B2E4 | 
[V:2] d4c2c2 | 
[V:3] z8 | 
[V:4] z4A,4 | 
[V:1] z8 | 
[V:2] c2c2c4 | 
[V:3] e4e2e2 | 
[V:4] A,2A,2A,4 | 
[V:1] z8 | 
[V:2] z2c4c2 | 
[V:3] e4z2e2- | 
[V:4] z2A,4A,2 | 
[V:1] z8 | 
[V:2] c2c2B4 | 
[V:3] e2e2e2e2 | 
[V:4] A,2A,2G,4 | 
[V:1] z8 | 
[V:2] A4G2g2 | 
[V:3] d4c4 | 
[V:4] F,4E,3F, | 
[V:1] z2A4A2 | 
[V:2] e2f3ee2- | 
[V:3] B2c3BB2- | 
[V:4] G,2A,3G,F,E, | 
[V:1] A2A2G4 | 
[V:2] e2d2e4 | 
[V:3] B2A2B2G2 | 
[V:4] F,4E,4 | 
[V:1] F4E3F | 
[V:2] c8 | 
[V:3] A3Bcde2- | 
[V:4] z8 | 
[V:1] GAB3cA2- | 
[V:2] z4z2c2- | 
[V:3] e2dcBAf2- | 
[V:4] z4z2A,2- | 
[V:1] A2G2A2D2 | 
[V:2] cBB3AA2- | 
[V:3] f2e2dcBA | 
[V:4] A,2E,2F,4 | 
[V:1] E4z4 | 
[V:2] A2^G2A4 | 
[V:3] B4A4 | 
[V:4] E,4A,,4 | 
[V:1] G4G2G2 | 
[V:2] z4c4 | 
[V:3] z8 | 
[V:4] z8 | 
[V:1] A4B4 | 
[V:2] c2c2d4 | 
[V:3] z8 | 
[V:4] z8 | 
[V:1] c4c4- | 
[V:2] e4f4 | 
[V:3] z8 | 
[V:4] z8 | 
[V:1] c2B2A2G2 | 
[V:2] f6e2 | 
[V:3] z8 | 
[V:4] z8 | 
[V:1] A2E2F4 | 
[V:2] d2c2d4 | 
[V:3] z8 | 
[V:4] z8 | 
[V:1] E4z4 | 
[V:2] A8- | 
[V:3] c4c2c2 | 
[V:4] z4F,4 | 
[V:1] z8 | 
[V:2] A4z4 | 
[V:3] d4e4 | 
[V:4] F,2F,2G,4 | 
[V:1] z8 | 
[V:2] z4d4 | 
[V:3] f4f4- | 
[V:4] A,4_B,4 | 
[V:1] z8 | 
[V:2] f2g4f2 | 
[V:3] f2e2d2c2 | 
[V:4] _B,6A,2 | 
[V:1] z8 | 
[V:2] e2f2d4 | 
[V:3] B2c4B2 | 
[V:4] G,2F,2G,4 | 
[V:1] c4c2c2- | 
[V:2] z4c4 | 
[V:3] c4G4- | 
[V:4] C,8- | 
[V:1] c2c2c2c2 | 
[V:2] c2c4c2 | 
[V:3] G8 | 
[V:4] C,8 | 
[V:1] G8 | 
[V:2] c2c2e4 | 
[V:3] z8 | 
[V:4] z8 | 
[V:1] z2c2c2c2 | 
[V:2] e4e2c2 | 
[V:3] z8 | 
[V:4] z8 | 
[V:1] A2c2B2A2- | 
[V:2] f3ed2c2 | 
[V:3] z8 | 
[V:4] z8 | 
[V:1] A2^G2A4- | 
[V:2] B4A2f2- | 
[V:3] z8 | 
[V:4] z4F,4 | 
[V:1] A8- | 
[V:2] f2f2f2f2 | 
[V:3] c4c2c2- | 
[V:4] F,2F,4F,2 | 
[V:1] A4z4 | 
[V:2] f2f2e4 | 
[V:3] c2c2c2c2 | 
[V:4] F,2F,2C,4 | 
[V:1] z8 | 
[V:2] z2c2c2c2 | 
[V:3] G2G2G2G2 | 
[V:4] z2C,2C,2C,2 | 
[V:1] z8 | 
[V:2] d3cB2A2- | 
[V:3] A3GF2E2- | 
[V:4] F,3E,D,2C,2 | 
[V:1] z4z2c2 | 
[V:2] A2^G2A4 | 
[V:3] E2D2E2e2 | 
[V:4] B,,4A,,2A,2 | 
[V:1] c2c2A2c2 | 
[V:2] z8 | 
[V:3] e2c2f3e | 
[V:4] A,2A,2A,2F,2 | 
[V:1] B2A4^G2 | 
[V:2] z8 | 
[V:3] d2c2B4 | 
[V:4] G,2A,2E,4 | 
[V:1] A8 | 
[V:2] z2A2A2A2 | 
[V:3] A2c2c2c2 | 
[V:4] z2A,,2A,,2A,,2 | 
[V:1] E8- | 
[V:2] c3BG2A2 | 
[V:3] A2c2B2A2- | 
[V:4] A,,2A,,2E,4 | 
[V:1] E8- | 
[V:2] B4c4 | 
[V:3] A2^G2A4 | 
[V:4] E,4A,,4- | 
[V:1] E8- | 
[V:2] c2B2A4 | 
[V:3] c4c4 | 
[V:4] A,,2B,,2C,2D,2 | 
[V:1] E8 |]  
[V:2] G8 |]  
[V:3] B8 |]  
[V:4] E,8 |]  



